X:374
T: Nanshan zhuzi
N: C1409
O: China,Shaanxi, Ziyang
S: I, 81]
R: Shange. Biaoda aiqing]
M: 2/4
L: 1/16
K: D
ABd4e2 | A2B2A4 | ABd4B2 | d2B2A4 |
B2BeB2d2 | e6dB | e2edBdA2 | B6z2 |
BdA2c4 | B2A2E2z2 | A2E4G2 | B2c2B3A | A8

@@@ Tune index: 6375
